X:21002 
T:BUNKER HILL (reel)
B:DMI.0787
Z:Nordberg/Black
R:reel
%Q:1/4=180
M:C|
L:1/8
K:G
GEEG D3E|FGAB c2Bc|ABAG EFGB|ABcA d2cA|
GEE2 D3E|FGAB c2Bc|dBcA BGEG|ABcA d2cA||
Gcc2 ecc2|Gccd eAGc|Add2 fdd2|AddB cAGA|
FGAB cAdB|cAdB c2Bc|dBcA BGEG|ABcA d2ag||
fdd2 fdad|fddf a2gf|gee2 gebe|gbeg b2ag|
fdd2 fdad|fdAB c2Bc|dBcA BGEG|ABcA d4|]

%%%

